svgs/sharp-regular/venus.svg

<svg xmlns="http://www.w3.org/2000/svg" viewBox="0 0 384 512"><!--! Font Awesome Pro 6.6.0 by @fontawesome - https://fontawesome.com License - https://fontawesome.com/license (Commercial License) Copyright 2024 Fonticons, Inc. --><path d="M64 176a128 128 0 1 1 256 0A128 128 0 1 1 64 176zM216 350.4c85.8-11.7 152-85.3 152-174.4C368 78.8 289.2 0 192 0S16 78.8 16 176c0 89.1 66.2 162.7 152 174.4l0 49.6-48 0-24 0 0 48 24 0 48 0 0 40 0 24 48 0 0-24 0-40 48 0 24 0 0-48-24 0-48 0 0-49.6z"/></svg>

<svg xmlns="http://www.w3.org/2000/svg" viewBox="0 0 384 512"><!--! Font Awesome Pro 6.4.2 by @fontawesome - https://fontawesome.com License - https://fontawesome.com/license (Commercial License) Copyright 2023 Fonticons, Inc. --><path d="M64 176a128 128 0 1 1 256 0A128 128 0 1 1 64 176zM216 350.4c85.8-11.7 152-85.3 152-174.4C368 78.8 289.2 0 192 0S16 78.8 16 176c0 89.1 66.2 162.7 152 174.4V400H120 96v48h24 48v40 24h48V488 448h48 24V400H264 216V350.4z"/></svg>
